X: 7853
T: Common Ground, The
R: polka
M: 2/4
K: Dmajor
|:A|dd/e/ {f/g/}fe/d/|B/G/ (3B/c/d/ g2|fA eA|fa/f/ ec/A/|
d2 fd/A/|B/G/B/d/ g2|fA eA|1 d2- d:|2 d2||
|:d/e/f/g/|ff/g/ a{b/a/}g/f/|e>f g/A/c/e/|fA ea/g/|f/g/a/f/ e/a/^g/a/|
d>A g/f/e/d/|B/G/ (3B/c/d/ g2|fA eA|1 d2:|2 d2- d||

